X:1
T:Monora, CMD
T:William Batchelder Bradbury, 1863
T:Monora, CMD
T:Public Domain
C:William Batchelder Bradbury, 1863
Z:Public Domain
%%score ( 1 2 ) ( 3 4 )
L:1/8
M:4/4
K:Ab
V:1 treble 
V:2 treble 
V:3 bass 
V:4 bass 
V:1
 x8 |: [CE]2 | [CE]3 C [CE]2 [EA]2 | [EA]3 [CE] [CA]2 [Ec]2 | [DB]2 [CA]2 [Ec]2 [DB]2 | [CA]6 :| %6
 [EA]2 | [EB]3 [EA] [EG]2 [EB]2 | [Ec]3 [DB] [CA]2 [Ec]2 | [Ed]2 [Ec]2 [EB]2 [EA][Ac] | %10
 A4 G2 [CE]2 | [CE]3 C [CE]2 [EA]2 | [EA]3 [CE] [CA]2 [Ec]2 | [DB]2 [CA]2 [Ec]2 [DB]2 | [CA]6 |] %15
V:2
 x8 |: x2 | x3 C x4 | x8 | x8 | x6 :| x2 | x8 | x8 | x8 | e6 x2 | x8 | x8 | x8 | x6 |] %15
V:3
 x8 |: [A,,A,]2 | [A,,A,]3 [A,,E,] [A,,A,]2 [A,,C]2 | [A,,C]3 [A,,A,] [A,,A,]2 A,2 | %4
 [E,G,]2 [F,A,]2 [E,A,]2 [E,G,]2 | [A,,A,]6 :| [A,C]2 | [E,D]3 [E,C] [E,B,]2 [E,D]2 | %8
 [A,C]3 [A,D] [A,E]2 A,2 | [G,B,]2 [A,C]2 [G,D]2 [A,C]2 | C4 B,2 [A,,A,]2 | %11
 [A,,A,]3 [A,,E,] [A,,A,]2 [A,,C]2 | [A,,C]3 [A,,A,] [A,,A,]2 A,2 | %13
 [E,G,]2 [F,A,]2 [E,A,]2 [E,G,]2 | [A,,A,]6 |] %15
V:4
 x8 |: x2 | x8 | x6 A,2 | x8 | x6 :| x2 | x8 | x8 | x8 | E,6 x2 | x8 | x8 | x8 | x6 |] %15

